packages/core/src/svgs/tokens/branded/PKT.svg

<svg width="24" height="24" viewBox="0 0 24 24" fill="none" xmlns="http://www.w3.org/2000/svg">
<path d="M21.4232 13.1628C21.107 13.1628 20.6046 12.9023 20.6046 12.5953V11.3023H22V9.90701H20.6046V8.51166H20.186L19.2093 9.90701H17.6884L16.4187 11.7675V8.51166H15.0234V11.5813C14.7676 10.5861 14.0373 9.93023 12.9304 9.93023C12.5769 9.93023 12.0745 10.0139 11.7676 10.1814V9.90701H10.3723V15.9534H11.7676V14.2511C12.0932 14.4464 12.5537 14.5441 12.9304 14.5394C14.0373 14.5394 14.7676 13.879 15.0234 12.8883V14.5581H16.4187V12.5674L17.7442 14.5581H19.3954L17.8233 12.1348L18.4279 11.3023H19.2093V12.8511C19.2112 13.0787 19.258 13.3036 19.3475 13.513C19.4368 13.7223 19.5667 13.9118 19.7298 14.0706C19.8929 14.2294 20.0859 14.3542 20.2975 14.4378C20.5091 14.5215 20.7353 14.5624 20.9627 14.5581H22V13.1628H21.4232ZM12.8188 13.2232C12.256 13.2232 11.8421 12.8046 11.8421 12.2325C11.8421 11.6651 12.256 11.2465 12.8188 11.2465C13.3815 11.2465 13.7955 11.6651 13.7955 12.2325C13.7955 12.8 13.3768 13.2232 12.8188 13.2232Z" fill="#171837"/>
<path d="M4.32554 9.90703H2.46511V11.7675H4.32554V9.90703ZM3.39532 8.04657H2V9.44189H3.39532V8.04657ZM6.18597 8.04657H4.79065V9.44189H6.18597V8.04657ZM4.32554 8.51168H3.86043V8.97678H4.32554V8.51168ZM9.44173 10.3721V13.9814C9.44173 14.2577 9.33196 14.5226 9.13658 14.7181C8.9412 14.9134 8.6762 15.0232 8.39988 15.0232H4.79065V10.3721H9.44173Z" fill="#4DABE0"/>
</svg>

<svg xmlns="http://www.w3.org/2000/svg" width="24" height="24" fill="none" viewBox="0 0 24 24">
    <path fill="#171837" d="M21.423 13.163c-.316 0-.818-.26-.818-.568v-1.293H22V9.907h-1.395V8.512h-.419l-.977 1.395h-1.52l-1.27 1.86V8.513h-1.396v3.07c-.255-.996-.986-1.652-2.093-1.652-.353 0-.855.084-1.162.251v-.274h-1.396v6.046h1.396v-1.702c.325.195.786.293 1.162.288 1.107 0 1.838-.66 2.093-1.65v1.67h1.396v-1.992l1.325 1.991h1.651l-1.572-2.423.605-.833h.781v1.55a1.72 1.72 0 0 0 1.754 1.706H22v-1.395zm-8.604.06c-.563 0-.977-.418-.977-.99 0-.568.414-.987.977-.987s.976.42.976.986c0 .568-.418.991-.976.991"/>
    <path fill="#4DABE0" d="M4.326 9.907h-1.86v1.86h1.86zm-.93-1.86H2v1.395h1.395zm2.79 0H4.791v1.395h1.395zm-1.86.465H3.86v.465h.466zm5.116 1.86v3.61a1.04 1.04 0 0 1-1.042 1.04H4.79v-4.65z"/>
</svg>
